images/svg/006-goal.svg

<svg id="Layer_1" enable-background="new 0 0 512 512" height="512" viewBox="0 0 512 512" width="512" xmlns="http://www.w3.org/2000/svg"><g><path d="m286.913 366.745c-9.794 2.767-20.145 4.255-30.913 4.255-63.513 0-115-51.487-115-115s51.487-115 115-115c10.768 0 21.119 1.488 30.913 4.255-48.409 13.562-83.913 58.005-83.913 110.745s35.504 97.184 83.913 110.745zm-206.913-110.745c0-120.176 89.826-219.372 206-234.11-9.824-1.247-19.837-1.89-30-1.89-130.339 0-236 105.661-236 236s105.661 236 236 236c10.163 0 20.176-.643 30-1.889-116.174-14.739-206-113.935-206-234.111z" fill="#6f6f6f"/><path d="m256 512c-68.38 0-132.667-26.629-181.02-74.98-48.351-48.352-74.98-112.64-74.98-181.02s26.629-132.667 74.98-181.02c48.353-48.351 112.64-74.98 181.02-74.98 82.323 0 160.161 39.735 208.216 106.292 6.465 8.956 4.447 21.457-4.509 27.923-8.954 6.466-21.456 4.447-27.923-4.508-40.555-56.171-106.269-89.707-175.784-89.707-119.103 0-216 96.898-216 216s96.897 216 216 216c69.515 0 135.229-33.536 175.784-89.708 6.467-8.955 18.969-10.974 27.923-4.508 8.956 6.466 10.974 18.967 4.509 27.923-48.055 66.558-125.893 106.293-208.216 106.293zm96.366-162.085c7.685-7.934 7.482-20.596-.451-28.281-7.936-7.685-20.596-7.482-28.281.452-18.06 18.645-42.079 28.914-67.634 28.914-52.383 0-95-42.617-95-95s42.617-95 95-95c25.555 0 49.574 10.269 67.634 28.915 7.685 7.934 20.347 8.136 28.281.452 7.934-7.685 8.136-20.347.451-28.281-25.662-26.495-59.886-41.086-96.366-41.086-74.439 0-135 60.561-135 135s60.561 135 135 135c36.481 0 70.705-14.591 96.366-41.085z" fill="#515151"/><path d="m482.485 276.34c-5.471-5.44-8.485-12.663-8.485-20.34s3.014-14.9 8.485-20.34l23.615-23.476c7.833-7.788 7.871-20.451.083-28.284-7.788-7.835-20.453-7.871-28.284-.084l-23.615 23.477c-8.193 8.145-14.079 17.976-17.335 28.708h-180.949c-11.046 0-20 8.954-20 20s8.954 20 20 20h180.949c3.256 10.732 9.142 20.563 17.335 28.708l23.615 23.476c3.903 3.878 9.001 5.815 14.101 5.815 5.138 0 10.275-1.968 14.184-5.9 7.788-7.833 7.75-20.497-.083-28.284z" fill="#D63447"/></g></svg>

<?xml version="1.0" encoding="utf-8"?>
<!-- Generator: Adobe Illustrator 25.0.0, SVG Export Plug-In . SVG Version: 6.00 Build 0)  -->
<svg version="1.1" id="Layer_1" xmlns="http://www.w3.org/2000/svg" xmlns:xlink="http://www.w3.org/1999/xlink" x="0px" y="0px"
	 viewBox="0 0 512 512" style="enable-background:new 0 0 512 512;" xml:space="preserve">
<style type="text/css">
	.st0{fill:#6F6F6F;}
	.st1{fill:#515151;}
	.st2{fill:#AA0000;}
</style>
<g>
	<path class="st0" d="M286.9,366.7c-9.8,2.8-20.1,4.3-30.9,4.3c-63.5,0-115-51.5-115-115s51.5-115,115-115c10.8,0,21.1,1.5,30.9,4.3
		c-48.4,13.6-83.9,58-83.9,110.7S238.5,353.2,286.9,366.7z M80,256c0-120.2,89.8-219.4,206-234.1c-9.8-1.2-19.8-1.9-30-1.9
		C125.7,20,20,125.7,20,256s105.7,236,236,236c10.2,0,20.2-0.6,30-1.9C169.8,475.4,80,376.2,80,256z"/>
	<path class="st1" d="M256,512c-68.4,0-132.7-26.6-181-75C26.6,388.7,0,324.4,0,256S26.6,123.3,75,75C123.3,26.6,187.6,0,256,0
		c82.3,0,160.2,39.7,208.2,106.3c6.5,9,4.4,21.5-4.5,27.9c-9,6.5-21.5,4.4-27.9-4.5C391.2,73.5,325.5,40,256,40
		C136.9,40,40,136.9,40,256s96.9,216,216,216c69.5,0,135.2-33.5,175.8-89.7c6.5-9,19-11,27.9-4.5c9,6.5,11,19,4.5,27.9
		C416.2,472.3,338.3,512,256,512z M352.4,349.9c7.7-7.9,7.5-20.6-0.5-28.3c-7.9-7.7-20.6-7.5-28.3,0.5
		C305.6,340.7,281.6,351,256,351c-52.4,0-95-42.6-95-95s42.6-95,95-95c25.6,0,49.6,10.3,67.6,28.9c7.7,7.9,20.3,8.1,28.3,0.5
		c7.9-7.7,8.1-20.3,0.5-28.3C326.7,135.6,292.5,121,256,121c-74.4,0-135,60.6-135,135s60.6,135,135,135
		C292.5,391,326.7,376.4,352.4,349.9z"/>
	<path class="st2" d="M482.5,276.3c-5.5-5.4-8.5-12.7-8.5-20.3s3-14.9,8.5-20.3l23.6-23.5c7.8-7.8,7.9-20.5,0.1-28.3
		c-7.8-7.8-20.5-7.9-28.3-0.1l-23.6,23.5c-8.2,8.1-14.1,18-17.3,28.7H256c-11,0-20,9-20,20c0,11,9,20,20,20h180.9
		c3.3,10.7,9.1,20.6,17.3,28.7l23.6,23.5c3.9,3.9,9,5.8,14.1,5.8c5.1,0,10.3-2,14.2-5.9c7.8-7.8,7.7-20.5-0.1-28.3L482.5,276.3z"/>
</g>
</svg>
